X:109
T:Andy Kerrin's
T:Winter's Night, A
R:hornpipe
D:Cathal McConnell: On Lough Erne's Shore
Z:id:hn-hornpipe-109
M:4/4
L:1/8
K:Em
E2ED EFGA | B2BA B2e2 | B2e2 B2AB | GBFB E2ED |
E2ED EFGA | B2BA B2e2 | B2e2 B2AB | GBFB E2 (3def ||
|: g2B2 dBGB | cABG EGFE | DEFG ABcd | (3efe d^c d2 (3def |
g2B2 dBGB | cABG EGFE | DEFG AcBA |1 G2B2 G2 (3def :|2 G2B2 G2F2 ||

